assets/img/imagenesMiTrayectoria/audifonos.svg

<svg width="51" height="50" viewBox="0 0 51 50" fill="none" xmlns="http://www.w3.org/2000/svg">
<path d="M50.8813 34.0554C50.6998 30.7831 50.5122 27.3992 50.268 24.0746C50.0201 20.5733 49.277 17.124 48.0609 13.828C47.158 11.3151 45.7909 8.99129 44.0297 6.97537C40.3595 2.8623 35.5561 0.538621 29.7527 0.0690194C25.9004 -0.242939 22.1844 0.556883 19.0572 1.37921C13.4309 2.86018 8.8947 5.95647 5.57503 10.5822C2.13988 15.3685 0.308172 20.9186 0.13043 27.0746C0.115967 27.5697 0.098149 28.0656 0.0803318 28.5612C0.0222723 30.1771 -0.0376716 31.8469 0.0300296 33.4899C0.0914438 34.9769 0.286369 36.4785 0.47501 37.9307C0.540196 38.4319 0.605168 38.9332 0.665114 39.4344C0.776412 40.3653 1.4069 40.9571 2.44003 41.1011C2.81429 41.1458 3.19092 41.1682 3.56789 41.168C3.83639 41.1732 4.1139 41.1786 4.38135 41.2015C4.65117 41.2313 4.91879 41.278 5.18266 41.3413C5.25937 41.3579 5.33686 41.3745 5.41511 41.391C5.42643 41.5742 5.43837 41.7514 5.45032 41.9232C5.48155 42.3807 5.5111 42.8129 5.5132 43.2374C5.51949 44.4935 5.87539 45.7509 6.63352 47.1945C7.59349 49.0227 9.23551 49.9927 11.3818 50H11.407C13.6579 50 15.3334 48.9774 16.2536 47.0418C17.0725 45.3187 17.4376 43.9655 17.4376 42.6536C17.4618 40.0159 17.3487 37.3786 17.0987 34.7523C16.774 31.7001 14.5217 29.736 11.3533 29.736H11.3009C9.54383 29.7481 8.05797 30.3291 7.00409 31.4168C5.94142 32.5139 5.41008 34.0279 5.46793 35.7957C5.47296 35.946 5.4826 36.0972 5.49203 36.2495C5.53395 36.8942 5.57189 37.5061 5.26964 38.1135C5.1399 38.1044 5.01079 38.0998 4.88482 38.0954C4.32749 38.0746 3.79971 38.0574 3.32496 37.6554C3.21178 33.8927 3.38365 30.08 3.56957 26.4954C3.72492 23.4594 4.36199 20.4664 5.45724 17.6273C7.19693 13.1238 9.86033 9.75798 13.6013 7.3376C18.6892 4.04602 24.3747 3.398 29.2658 3.19897C37.611 4.07765 42.8123 8.15728 45.1668 15.6711C46.0932 18.7213 46.6459 21.8711 46.813 25.0524L46.8574 25.7541C46.976 27.6172 47.0986 29.5436 47.168 31.4385C47.1787 31.7271 47.1969 32.0164 47.2156 32.3074C47.3026 33.1761 47.2909 34.0516 47.1802 34.9176L45.1829 35.4086C45.1649 35.3716 45.1475 35.3367 45.1307 35.3028C45.0705 35.1988 45.0259 35.0867 44.9982 34.9698C44.7346 33.1068 43.6777 31.6776 41.5731 30.3356C40.5968 29.756 39.4679 29.4796 38.3319 29.5424C37.1958 29.605 36.1046 30.0037 35.1989 30.6873C33.9979 31.6375 33.2587 33.0735 33.061 34.8398C32.9466 36.0554 32.9216 37.2777 32.9864 38.4968C33.0004 38.8745 33.0128 39.2526 33.0235 39.6311C33.0449 41.3205 33.1593 43.0075 33.3666 44.6846C33.7879 47.6347 35.7997 49.5061 38.886 49.8191C40.8934 50.0216 42.5061 49.2939 43.5499 47.7119C44.9064 45.6552 45.3629 43.7506 44.9454 41.8899C44.7207 40.9197 44.7809 39.9061 45.119 38.9687C45.4526 38.9708 45.7803 38.9787 46.1041 38.9866C46.9058 39.0228 47.7088 39.0089 48.5086 38.945C50.3049 38.7635 51.0939 37.8286 50.9911 36.0028L50.8813 34.0554ZM14.0467 39.3764C14.0383 39.5681 14.0306 39.7565 14.0306 39.9391C14.0306 39.958 14.0331 39.977 14.0379 39.9953C14.4613 41.48 14.2927 43.0695 13.5669 44.4342L13.504 44.559C13.3809 44.8271 13.2324 45.0827 13.0603 45.3225C12.8103 45.6519 12.4807 45.9138 12.1019 46.0835C11.723 46.2532 11.3073 46.3255 10.8928 46.2937C10.4894 46.2613 10.101 46.1271 9.76457 45.9038C9.42815 45.6804 9.1549 45.3755 8.97078 45.0178C8.71058 44.5501 8.55215 44.0335 8.50568 43.5011C8.3642 41.0588 8.26128 38.5576 8.19987 36.0671C8.16403 34.6177 8.91063 33.6841 10.3018 33.4389C10.5331 33.3967 10.7677 33.3749 11.0029 33.3734C12.1125 33.3734 12.8643 33.9331 13.2905 35.0703C13.6288 36.0592 13.871 37.0778 14.014 38.1125C14.0679 38.5316 14.0789 38.9552 14.0467 39.3764ZM41.2529 37.3738C41.2585 37.6186 41.2568 37.8658 41.2554 38.114C41.216 38.8778 41.2799 39.6436 41.4457 40.3906C41.8492 41.8672 41.2592 43.1119 40.6884 44.3149C40.2646 45.2091 39.7016 45.5976 38.9131 45.5367C37.7393 45.4469 37.0372 45.0103 36.7056 44.163C36.432 43.5314 36.2572 42.8624 36.1868 42.1788C36.0216 39.2659 35.9395 36.9036 35.9284 34.7444C35.9256 34.2097 36.2503 33.6667 36.8192 33.2543C37.3136 32.8943 37.9087 32.6961 38.5218 32.6873C38.7502 32.6859 38.9774 32.7198 39.195 32.7882C39.6859 32.9712 40.1541 33.2091 40.5903 33.4976C40.7999 33.6236 41.0156 33.7532 41.2468 33.8823C41.2468 34.2606 41.2447 34.6219 41.243 34.9709C41.2384 35.8061 41.2346 36.5958 41.2524 37.3736L41.2529 37.3738Z" fill="#021E26"/>
</svg>

<svg xmlns="http://www.w3.org/2000/svg" width="51" height="50" fill="none"><path fill="#021E26" d="M50.881 34.055c-.181-3.272-.369-6.656-.613-9.98a37.2 37.2 0 0 0-2.207-10.247 21.4 21.4 0 0 0-4.031-6.853C40.36 2.862 35.556.54 29.753.07c-3.853-.312-7.569.488-10.696 1.31C13.431 2.86 8.895 5.956 5.575 10.582 2.14 15.368.308 20.92.13 27.075q-.022.742-.05 1.486c-.058 1.616-.118 3.286-.05 4.929.061 1.487.256 2.988.445 4.44q.099.753.19 1.504c.111.931.742 1.523 1.775 1.667q.561.067 1.128.067c.268.005.546.01.813.034q.406.044.802.14l.232.049q.017.274.035.532c.032.458.061.89.063 1.314.006 1.256.362 2.514 1.12 3.957.96 1.829 2.603 2.799 4.749 2.806h.025c2.25 0 3.926-1.023 4.847-2.958.819-1.723 1.184-3.077 1.184-4.388a76 76 0 0 0-.34-7.902c-.324-3.052-2.576-5.016-5.745-5.016h-.052c-1.757.012-3.243.593-4.297 1.68-1.063 1.098-1.594 2.612-1.536 4.38q.009.225.024.453c.042.645.08 1.257-.222 1.864a11 11 0 0 0-.385-.018c-.558-.02-1.085-.038-1.56-.44-.113-3.762.059-7.575.245-11.16a28.7 28.7 0 0 1 1.887-8.868c1.74-4.503 4.403-7.869 8.144-10.29C18.69 4.047 24.375 3.399 29.266 3.2c8.345.879 13.546 4.958 15.9 12.472a39.4 39.4 0 0 1 1.647 9.381l.044.702c.119 1.863.242 3.79.311 5.685.01.288.029.577.048.868.087.87.075 1.745-.036 2.61l-1.997.492-.052-.106a1.2 1.2 0 0 1-.133-.333c-.263-1.863-1.32-3.292-3.425-4.634a5.73 5.73 0 0 0-6.374.351c-1.201.95-1.94 2.387-2.138 4.153a25 25 0 0 0-.075 3.657q.021.566.038 1.134.03 2.537.343 5.054c.42 2.95 2.433 4.821 5.519 5.134 2.007.203 3.62-.525 4.664-2.107 1.356-2.057 1.813-3.961 1.395-5.822a5.17 5.17 0 0 1 .174-2.921q.5.005.985.018 1.204.054 2.405-.042c1.796-.181 2.585-1.116 2.482-2.942zm-36.834 5.321q-.015.288-.016.563 0 .029.007.056a5.97 5.97 0 0 1-.471 4.44l-.063.124a4.6 4.6 0 0 1-.444.764 2.47 2.47 0 0 1-2.167.97 2.4 2.4 0 0 1-1.128-.39 2.36 2.36 0 0 1-.794-.885 3.8 3.8 0 0 1-.465-1.517 225 225 0 0 1-.306-7.434c-.036-1.45.71-2.383 2.102-2.628a4 4 0 0 1 .7-.066c1.11 0 1.862.56 2.288 1.697.339.99.581 2.008.724 3.042q.081.631.033 1.264m27.206-2.002q.006.368.002.74c-.039.764.025 1.53.19 2.277.404 1.476-.186 2.72-.757 3.924-.423.894-.986 1.283-1.775 1.222-1.174-.09-1.876-.527-2.207-1.374a6.7 6.7 0 0 1-.52-1.984c-.164-2.913-.246-5.275-.258-7.435-.002-.534.322-1.077.891-1.49a2.97 2.97 0 0 1 1.703-.567 2.2 2.2 0 0 1 .673.101c.49.183.96.421 1.395.71.21.126.426.255.657.384q0 .567-.004 1.089c-.005.835-.008 1.625.01 2.403"/></svg>
